profile/farmbot.svg

<?xml version="1.0" encoding="UTF-8" standalone="no"?>
<!-- Created with Inkscape (http://www.inkscape.org/) -->

<svg
   width="100mm"
   height="100mm"
   viewBox="0 0 100 99.999998"
   version="1.1"
   id="svg1"
   xml:space="preserve"
   inkscape:version="1.4 (e7c3feb100, 2024-10-09)"
   sodipodi:docname="farmbot.svg"
   inkscape:export-filename="farmbot.jpg"
   inkscape:export-xdpi="127"
   inkscape:export-ydpi="127"
   xmlns:inkscape="http://www.inkscape.org/namespaces/inkscape"
   xmlns:sodipodi="http://sodipodi.sourceforge.net/DTD/sodipodi-0.dtd"
   xmlns="http://www.w3.org/2000/svg"
   xmlns:svg="http://www.w3.org/2000/svg"><sodipodi:namedview
     id="namedview1"
     pagecolor="#ffffff"
     bordercolor="#000000"
     borderopacity="0.25"
     inkscape:showpageshadow="2"
     inkscape:pageopacity="0.0"
     inkscape:pagecheckerboard="0"
     inkscape:deskcolor="#d1d1d1"
     inkscape:document-units="mm"
     inkscape:zoom="1.5707826"
     inkscape:cx="174.43534"
     inkscape:cy="305.58016"
     inkscape:window-width="3412"
     inkscape:window-height="2116"
     inkscape:window-x="0"
     inkscape:window-y="0"
     inkscape:window-maximized="1"
     inkscape:current-layer="layer1"><inkscape:page
       x="0"
       y="0"
       width="100"
       height="100"
       id="page2"
       margin="0"
       bleed="0" /></sodipodi:namedview><defs
     id="defs1" /><g
     inkscape:label="Layer 1"
     inkscape:groupmode="layer"
     id="layer1"
     transform="translate(-99.659673,-89.572937)"><path
       id="rect1-2"
       style="fill:#005172;fill-opacity:1;fill-rule:evenodd;stroke-width:1.86357;-inkscape-stroke:none"
       d="m 149.11764,109.41255 c -0.41336,0 -2.84308,3.12461 -5.39864,6.94273 l -3.50728,5.23844 h -19.78226 c -9.59157,0 -17.31315,7.72158 -17.31315,17.31316 v 18.11259 c 0,6.97945 4.09808,12.95216 10.02058,15.69671 v -2.11305 c 0,-3.77643 3.0402,-6.81715 6.81663,-6.81715 h 7.9375 c 3.77644,0 6.81664,3.04072 6.81664,6.81715 v 3.72949 h 28.81995 v -3.72949 c 0,-3.77643 3.0402,-6.81715 6.81664,-6.81715 h 7.9375 c 3.77643,0 6.81664,3.04072 6.81664,6.81715 v 2.11305 c 5.92249,-2.74455 10.02057,-8.71726 10.02057,-15.69671 v -18.11259 c 0,-9.59158 -7.72157,-17.31316 -17.31315,-17.31316 h -19.78277 l -3.50677,-5.23844 c -2.55551,-3.81812 -4.98528,-6.94273 -5.39863,-6.94273 z m -24.75715,26.03201 h 49.51377 c 4.55358,0 8.21966,3.66555 8.21966,8.21913 v 8.59896 c 0,4.55358 -3.66608,8.21965 -8.21966,8.21965 h -49.51377 c -4.55358,0 -8.21965,-3.66607 -8.21965,-8.21965 v -8.59896 c 0,-4.55358 3.66607,-8.21913 8.21965,-8.21913 z m -3.0055,31.0844 c -3.37108,0 -6.0849,2.71434 -6.0849,6.08542 v 10.07794 c 0,3.37107 2.71382,6.0849 6.0849,6.0849 h 5.13405 c 3.37108,0 6.08542,-2.71383 6.08542,-6.0849 v -10.07794 c 0,-3.37108 -2.71434,-6.08542 -6.08542,-6.08542 z m 50.39072,0 c -3.37107,0 -6.0849,2.71434 -6.0849,6.08542 v 10.07794 c 0,3.37107 2.71383,6.0849 6.0849,6.0849 h 5.13406 c 3.37107,0 6.0849,-2.71383 6.0849,-6.0849 v -10.07794 c 0,-3.37108 -2.71383,-6.08542 -6.0849,-6.08542 z" /><path
       id="path1-9"
       style="fill:#008a00;fill-opacity:1;stroke-width:4.52247"
       d="m 108.12427,90.500529 c -1.0344,0.01018 -1.22213,0.659321 -1.21594,2.356445 0.0201,4.850033 5.46021,14.790806 10.25932,18.746656 2.52833,2.08404 6.77094,4.56119 9.42785,5.50458 7.69132,2.7309 9.20216,2.47757 8.27184,-1.38648 -3.05339,-12.68191 -12.00265,-21.67861 -24.74629,-24.877036 -0.8814,-0.22122 -1.52659,-0.348793 -1.99678,-0.344165 z m 81.98673,0 c -0.47015,-0.0046 -1.11545,0.122945 -1.99678,0.344165 -12.74283,3.198426 -21.69153,12.195126 -24.74474,24.877036 -0.93023,3.86405 0.58046,4.11738 8.27133,1.38648 2.65672,-0.94339 6.89913,-3.42054 9.42733,-5.50458 4.79879,-3.95585 10.23878,-13.896623 10.25881,-18.746656 0.006,-1.697124 -0.18162,-2.346263 -1.21595,-2.356445 z m -55.35218,49.807291 a 8.4791775,8.4791775 0 0 0 -8.47907,8.47907 8.4791775,8.4791775 0 0 0 8.47907,8.47907 8.4791775,8.4791775 0 0 0 8.47907,-8.47907 8.4791775,8.4791775 0 0 0 -8.47907,-8.47907 z m 28.71763,0 a 8.4791775,8.4791775 0 0 0 -8.47959,8.47907 8.4791775,8.4791775 0 0 0 8.47959,8.47907 8.4791775,8.4791775 0 0 0 8.47907,-8.47907 8.4791775,8.4791775 0 0 0 -8.47907,-8.47907 z" /></g></svg>

<?xml version="1.0" encoding="UTF-8" standalone="no"?>
<!-- Created with Inkscape (http://www.inkscape.org/) -->

<svg
   width="100mm"
   height="100mm"
   viewBox="0 0 100 99.999998"
   version="1.1"
   id="svg1"
   xml:space="preserve"
   inkscape:version="1.4 (e7c3feb100, 2024-10-09)"
   sodipodi:docname="farmbot.svg"
   inkscape:export-filename="farmbot.png"
   inkscape:export-xdpi="127"
   inkscape:export-ydpi="127"
   xmlns:inkscape="http://www.inkscape.org/namespaces/inkscape"
   xmlns:sodipodi="http://sodipodi.sourceforge.net/DTD/sodipodi-0.dtd"
   xmlns="http://www.w3.org/2000/svg"
   xmlns:svg="http://www.w3.org/2000/svg"><sodipodi:namedview
     id="namedview1"
     pagecolor="#ffffff"
     bordercolor="#000000"
     borderopacity="0.25"
     inkscape:showpageshadow="2"
     inkscape:pageopacity="0.0"
     inkscape:pagecheckerboard="0"
     inkscape:deskcolor="#d1d1d1"
     inkscape:document-units="mm"
     inkscape:zoom="1.5707826"
     inkscape:cx="174.43534"
     inkscape:cy="304.94354"
     inkscape:window-width="3412"
     inkscape:window-height="2116"
     inkscape:window-x="0"
     inkscape:window-y="0"
     inkscape:window-maximized="1"
     inkscape:current-layer="layer1"><inkscape:page
       x="0"
       y="0"
       width="100"
       height="100"
       id="page2"
       margin="0"
       bleed="0" /></sodipodi:namedview><defs
     id="defs1" /><g
     inkscape:label="Layer 1"
     inkscape:groupmode="layer"
     id="layer1"
     transform="translate(-99.659673,-89.572937)"><path
       id="rect1-2"
       style="fill:#09345f;fill-opacity:1;fill-rule:evenodd;stroke-width:1.86357;-inkscape-stroke:none"
       d="M 149.11764 109.41255 C 148.70428 109.41255 146.27456 112.53716 143.719 116.35528 L 140.21172 121.59372 L 120.42946 121.59372 C 110.83789 121.59372 103.11631 129.3153 103.11631 138.90688 L 103.11631 157.01947 C 103.11631 163.99892 107.21439 169.97163 113.13689 172.71618 L 113.13689 170.60313 C 113.13689 166.8267 116.17709 163.78598 119.95352 163.78598 L 127.89102 163.78598 C 131.66746 163.78598 134.70766 166.8267 134.70766 170.60313 L 134.70766 174.33262 L 163.52761 174.33262 L 163.52761 170.60313 C 163.52761 166.8267 166.56781 163.78598 170.34425 163.78598 L 178.28175 163.78598 C 182.05818 163.78598 185.09839 166.8267 185.09839 170.60313 L 185.09839 172.71618 C 191.02088 169.97163 195.11896 163.99892 195.11896 157.01947 L 195.11896 138.90688 C 195.11896 129.3153 187.39739 121.59372 177.80581 121.59372 L 158.02304 121.59372 L 154.51627 116.35528 C 151.96076 112.53716 149.53099 109.41255 149.11764 109.41255 z M 124.36049 135.44456 L 173.87426 135.44456 C 178.42784 135.44456 182.09392 139.11011 182.09392 143.66369 L 182.09392 152.26265 C 182.09392 156.81623 178.42784 160.4823 173.87426 160.4823 L 124.36049 160.4823 C 119.80691 160.4823 116.14084 156.81623 116.14084 152.26265 L 116.14084 143.66369 C 116.14084 139.11011 119.80691 135.44456 124.36049 135.44456 z M 121.35499 166.52896 C 117.98391 166.52896 115.27009 169.2433 115.27009 172.61438 L 115.27009 182.69232 C 115.27009 186.06339 117.98391 188.77722 121.35499 188.77722 L 126.48904 188.77722 C 129.86012 188.77722 132.57446 186.06339 132.57446 182.69232 L 132.57446 172.61438 C 132.57446 169.2433 129.86012 166.52896 126.48904 166.52896 L 121.35499 166.52896 z M 171.74571 166.52896 C 168.37464 166.52896 165.66081 169.2433 165.66081 172.61438 L 165.66081 182.69232 C 165.66081 186.06339 168.37464 188.77722 171.74571 188.77722 L 176.87977 188.77722 C 180.25084 188.77722 182.96467 186.06339 182.96467 182.69232 L 182.96467 172.61438 C 182.96467 169.2433 180.25084 166.52896 176.87977 166.52896 L 171.74571 166.52896 z " /><path
       id="path1-9"
       style="fill:#1b8a4c;fill-opacity:1;stroke-width:4.52247"
       d="M 108.12427 90.500529 C 107.08987 90.510711 106.90214 91.15985 106.90833 92.856974 C 106.92841 97.707007 112.36854 107.64778 117.16765 111.60363 C 119.69598 113.68767 123.93859 116.16482 126.5955 117.10821 C 134.28682 119.83911 135.79766 119.58578 134.86734 115.72173 C 131.81395 103.03982 122.86469 94.04312 110.12105 90.844694 C 109.23965 90.623474 108.59446 90.495901 108.12427 90.500529 z M 190.111 90.500529 C 189.64085 90.495901 188.99555 90.623474 188.11422 90.844694 C 175.37139 94.04312 166.42269 103.03982 163.36948 115.72173 C 162.43925 119.58578 163.94994 119.83911 171.64081 117.10821 C 174.29753 116.16482 178.53994 113.68767 181.06814 111.60363 C 185.86693 107.64778 191.30692 97.707007 191.32695 92.856974 C 191.33313 91.15985 191.14533 90.510711 190.111 90.500529 z M 134.75882 140.30782 A 8.4791775 8.4791775 0 0 0 126.27975 148.78689 A 8.4791775 8.4791775 0 0 0 134.75882 157.26596 A 8.4791775 8.4791775 0 0 0 143.23789 148.78689 A 8.4791775 8.4791775 0 0 0 134.75882 140.30782 z M 163.47645 140.30782 A 8.4791775 8.4791775 0 0 0 154.99686 148.78689 A 8.4791775 8.4791775 0 0 0 163.47645 157.26596 A 8.4791775 8.4791775 0 0 0 171.95552 148.78689 A 8.4791775 8.4791775 0 0 0 163.47645 140.30782 z " /></g></svg>
